X:367
T:B367-  Peg and the Soldier
S:or Peggy's Gone Over Sea with the Soldier
Q:20
L:1/8
M:3/8
K:Em
GAB|BAA|dBd|e3:|\
gfe|fed|gfe|f3|\
gfe|dBd|e2e|E3|]

